html/assets/images/dynamic/life-sciences-icon-1.svg

<svg width="66" height="84" viewBox="0 0 66 84" fill="none" xmlns="http://www.w3.org/2000/svg">
<path d="M16.3649 2C12.8273 2 10.1742 5.05996 10.1742 8.82743V11.1091C10.1742 14.8766 12.8273 17.9366 16.3649 17.9366C19.9024 17.9366 22.5555 14.8766 22.5555 11.1091V8.82743C22.5555 5.05996 19.9024 2 16.3649 2Z" stroke="#00999A" stroke-width="4" stroke-miterlimit="10"/>
<path d="M27.8618 83.3631V55.0983" stroke="#00999A" stroke-width="4" stroke-miterlimit="10"/>
<path d="M19.0179 58.6003V83.363" stroke="#00999A" stroke-width="4" stroke-miterlimit="10"/>
<path d="M8.4054 45.1047V83.3631" stroke="#00999A" stroke-width="4" stroke-miterlimit="10"/>
<path d="M17.7091 51.8261L51.3333 62.6864L54.8354 51.4901C55.3661 49.7921 54.5524 48.9254 53.2436 49.1907C51.8462 49.4737 50.1482 50.022 48.5386 49.5091C45.0542 48.4124 43.1085 44.7157 44.2052 41.2489C45.2841 37.7645 48.9985 35.8365 52.483 36.9332C54.1103 37.4461 55.1892 38.8434 56.1797 39.887C57.0995 40.8421 58.2669 40.6122 58.7975 38.9142L63.3963 24.2334C63.3963 24.2334 53.9334 21.2796 52.8898 20.9435C51.1918 20.4129 50.9442 19.2455 51.917 18.3258C52.9429 17.3353 54.3579 16.2563 54.8708 14.6467C55.9498 11.1623 54.0218 7.46555 50.5374 6.38661C47.0529 5.28997 43.3562 7.23561 42.2595 10.7024C41.7466 12.3297 42.2949 14.01 42.5779 15.4073C42.8432 16.7162 41.9942 17.5298 40.2785 16.9992C39.235 16.6631 29.7721 13.7093 29.7721 13.7093L22.8916 35.5005" stroke="#00999A" stroke-width="4" stroke-linecap="round" stroke-linejoin="round"/>
<path d="M11.483 32.5642L13.0748 36.5616C13.7116 38.1535 14.4898 38.7902 15.9756 39.3385C15.9756 39.3385 23.086 40.7535 25.4916 41.2665C24.165 46.502 21.2819 47.2803 18.0097 46.8558C16.1525 46.6081 10.9346 45.936 10.9346 45.936C9.21894 45.7061 8.06924 45.317 6.45966 42.9468L4.92084 39.6215C3.55889 36.7031 2.60376 35.4473 2.60376 33.0594C2.60376 28.0715 5.20384 23.2251 10.9169 23.2251H20.8043" stroke="#00999A" stroke-width="4" stroke-linecap="round" stroke-linejoin="round"/>
</svg>

<svg width="66" height="84" fill="none" xmlns="http://www.w3.org/2000/svg"><path d="M16.365 2c-3.538 0-6.19 3.06-6.19 6.827v2.282c0 3.768 2.652 6.828 6.19 6.828 3.537 0 6.19-3.06 6.19-6.828V8.827C22.555 5.06 19.902 2 16.365 2zm11.497 81.363V55.098M19.018 58.6v24.763M8.405 45.105v38.258" stroke="#00999A" stroke-width="4" stroke-miterlimit="10"/><path d="M17.71 51.826l33.623 10.86 3.502-11.196c.531-1.698-.283-2.565-1.591-2.3-1.398.284-3.096.832-4.705.32-3.485-1.098-5.43-4.794-4.334-8.261 1.08-3.485 4.794-5.413 8.278-4.316 1.627.513 2.706 1.91 3.697 2.954.92.955 2.087.725 2.617-.973l4.6-14.68s-9.464-2.954-10.507-3.29c-1.698-.531-1.946-1.698-.973-2.618 1.026-.99 2.44-2.07 2.954-3.68 1.079-3.484-.85-7.18-4.334-8.26-3.484-1.096-7.18.85-8.277 4.316-.513 1.628.035 3.308.318 4.705.265 1.31-.584 2.123-2.3 1.592-1.043-.336-10.506-3.29-10.506-3.29l-6.88 21.792" stroke="#00999A" stroke-width="4" stroke-linecap="round" stroke-linejoin="round"/><path d="M11.483 32.564l1.592 3.998c.637 1.592 1.415 2.228 2.9 2.777 0 0 7.111 1.415 9.517 1.928-1.327 5.235-4.21 6.013-7.482 5.589-1.858-.248-7.075-.92-7.075-.92-1.716-.23-2.866-.619-4.475-2.99l-1.54-3.325c-1.361-2.918-2.316-4.174-2.316-6.562 0-4.987 2.6-9.834 8.313-9.834h9.887" stroke="#00999A" stroke-width="4" stroke-linecap="round" stroke-linejoin="round"/></svg>
